!!!OTL: Green Bushes
!!!ONM: 19.
**kern
*clefG2
*k[f#]
*G:
*M3/4
*MM92
{(8g
8a)
=1
4b
4a
(8g
8e)
=2
(8g
8e)
4d
4d
=3
4e
4g
4g
=4
2g}
{4d
=5
4g
(8b
8dd)
(8dd
8b)
=6
4cc
4dd
4ee
=7
4dd
(8b
8a)
4g
=8
2a}
{4d
=9
4g
(8b
8dd)
(8dd
8b)
=10
4cc
4dd
4ee
=11
(8dd
8b)
(8b
8a)
4g
=12
2a}
{(8g
8a)
=13
4b
4a
(8g
8e)
=14
(8g
8e)
4d
4d
=15
4e
4g
4g
=16
2g}
==
*-
!!!CNT: Folksongs of Maritime Canada
!!!MRD: 1928///-1932///
!!!OCL: Helen Creighton
!!!YOR: Songs and Ballads from Nova Scotia
!!!PPR: J.M. Dent & Sons, Limited
!!!PPP: Toronto, Canada
!!!PDT: 1932///
!!!reprint: Dover Publications, 1992: ISBN 0-486-21703-5
!!!ENC1: Craig Stuart Sapp (music and bibliographic data)                       
!!!ENC2: Marcus Pearce (phrase markings and key designations)                   
!!!ENC3: Darrell Conklin (phrase markings and key designations)   
!!!END: 2002/04/10/
!!!EEV: 2004/06/05
!!!MPN: Mr. Richard Hartlan
!!!PPG: 38
!!!EFL: 19/152
!!!ARE: Canada; Nova Scotia
!!!verses: 6
!!!VTS: 2719771292
